images/get-logo.svg

<svg height="250" viewBox="0 0 250 250" width="250" xmlns="http://www.w3.org/2000/svg"><g fill-rule="evenodd"><path d="m238.75 125c0 62.824219-50.925781 113.75-113.75 113.75s-113.75-50.925781-113.75-113.75 50.925781-113.75 113.75-113.75 113.75 50.925781 113.75 113.75zm0 0" fill="#fff"/><path d="m0 125c0-68.921875 56.078125-125 125-125s125 56.078125 125 125-56.078125 125-125 125-125-56.078125-125-125zm133.363281-12.167969v-17.300781l-28.894531 28.894531 28.894531 28.894531v-17.40625h49.417969l-55.285156 55.28125-66.820313-66.824218 66.820313-66.820313 35.402344 35.398438c4.503906 4.507812 11.8125 4.507812 16.320312 0 4.507812-4.507813 4.507812-11.8125 0-16.320313l-43.5625-43.5625c-4.503906-4.503906-11.8125-4.503906-16.320312 0l-83.144532 83.144532c-4.503906 4.507812-4.503906 11.816406 0 16.320312l83.144532 83.144531c4.507812 4.507813 11.816406 4.507813 16.320312 0l76.085938-76.082031c3.15625-3.085938 5.1875-7.050781 5.1875-11.691406s-2.03125-8.605469-5.28125-11.78125c-2.15625-2.109375-5.050782-3.289063-8.066407-3.289063zm0 0" fill="#01c696"/></g></svg>

<svg xmlns="http://www.w3.org/2000/svg" xmlns:xlink="http://www.w3.org/1999/xlink" width="250px" height="250px" viewBox="0 0 250 250" version="1.1">
<g id="surface1">
<path style=" stroke:none;fill-rule:evenodd;fill:rgb(100%,100%,100%);fill-opacity:1;" d="M 238.75 125 C 238.75 187.824219 187.824219 238.75 125 238.75 C 62.175781 238.75 11.25 187.824219 11.25 125 C 11.25 62.175781 62.175781 11.25 125 11.25 C 187.824219 11.25 238.75 62.175781 238.75 125 Z M 238.75 125 "/>
<path style=" stroke:none;fill-rule:evenodd;fill:rgb(0.392157%,77.64706%,58.823532%);fill-opacity:1;" d="M 0 125 C 0 56.078125 56.078125 0 125 0 C 193.921875 0 250 56.078125 250 125 C 250 193.921875 193.921875 250 125 250 C 56.078125 250 0 193.921875 0 125 Z M 133.363281 112.832031 L 133.363281 95.53125 L 104.46875 124.425781 L 133.363281 153.320312 L 133.363281 135.914062 L 182.78125 135.914062 L 127.496094 191.195312 L 60.675781 124.371094 L 127.496094 57.550781 L 162.898438 92.949219 C 167.402344 97.457031 174.710938 97.457031 179.21875 92.949219 C 183.726562 88.441406 183.726562 81.136719 179.21875 76.628906 L 135.65625 33.066406 C 131.152344 28.5625 123.84375 28.5625 119.335938 33.066406 L 36.191406 116.210938 C 31.6875 120.71875 31.6875 128.027344 36.191406 132.53125 L 119.335938 215.675781 C 123.84375 220.183594 131.152344 220.183594 135.65625 215.675781 L 211.742188 139.59375 C 214.898438 136.507812 216.929688 132.542969 216.929688 127.902344 C 216.929688 123.261719 214.898438 119.296875 211.648438 116.121094 C 209.492188 114.011719 206.597656 112.832031 203.582031 112.832031 Z M 133.363281 112.832031 "/>
</g>
</svg>
